packages/foundations/assets/icons/functional/images/business & payment/sepa_20_filled.svg

<svg width="20" height="20" viewBox="0 0 20 20" fill="none" xmlns="http://www.w3.org/2000/svg">
<g clip-path="url(#clip0_2202_1459)">
<path fill-rule="evenodd" clip-rule="evenodd" d="M15.5104 13.2574L15.5464 13.3414L16.8744 17.3414C16.9145 17.4602 16.9086 17.5897 16.8578 17.7043C16.8069 17.8189 16.7149 17.9102 16.5999 17.9602C16.4849 18.0101 16.3554 18.015 16.2369 17.974C16.1185 17.9329 16.0198 17.8488 15.9604 17.7384L15.9254 17.6554L15.5734 16.5984H14.4294L14.0224 17.6754C13.981 17.7849 13.9024 17.8765 13.8005 17.934C13.6985 17.9916 13.5795 18.0116 13.4644 17.9904L13.3774 17.9664C13.268 17.9248 13.1767 17.8462 13.1193 17.7443C13.062 17.6423 13.0422 17.5235 13.0634 17.4084L13.0874 17.3214L14.6044 13.3214C14.6381 13.232 14.6968 13.1542 14.7735 13.0971C14.8501 13.04 14.9415 13.0061 15.0369 12.9993C15.1322 12.9926 15.2275 13.0133 15.3114 13.0591C15.3953 13.1048 15.4644 13.1736 15.5104 13.2574ZM11.8404 12.9984C12.8024 12.9984 13.3444 13.5404 13.3444 14.5534C13.3444 15.5114 12.8694 16.0334 11.9994 16.0884L11.8414 16.0934H11.2094L11.2104 17.4984C11.2104 17.6154 11.1694 17.7288 11.0945 17.8187C11.0196 17.9086 10.9155 17.9693 10.8004 17.9904L10.7104 17.9984C10.5933 17.9985 10.48 17.9574 10.3901 17.8825C10.3002 17.8076 10.2394 17.7035 10.2184 17.5884L10.2104 17.4984V13.4984C10.2103 13.3814 10.2513 13.2681 10.3263 13.1782C10.4012 13.0883 10.5053 13.0275 10.6204 13.0064L10.7104 12.9984H11.8404ZM4.59537 12.9984C5.03237 12.9984 5.45337 13.0974 5.80237 13.2654C5.91797 13.3253 6.00565 13.4279 6.04676 13.5515C6.08787 13.675 6.07917 13.8097 6.02252 13.9269C5.96586 14.0442 5.86571 14.1347 5.74336 14.1792C5.62102 14.2237 5.48613 14.2188 5.36737 14.1654C5.12546 14.0536 4.86186 13.9966 4.59537 13.9984C4.33437 13.9984 4.25537 14.0694 4.25537 14.2314C4.25537 14.4194 4.37037 14.5704 4.75337 14.8394L5.02937 15.0254C5.90337 15.5934 6.23237 15.9324 6.23237 16.6274C6.23237 17.4394 5.55937 17.9984 4.66537 17.9984C4.20116 17.9984 3.74516 17.8759 3.34337 17.6434C3.22946 17.5755 3.14719 17.4652 3.11465 17.3366C3.08211 17.208 3.10198 17.0718 3.16987 16.9579C3.23777 16.844 3.34813 16.7617 3.47669 16.7292C3.60525 16.6967 3.74146 16.7165 3.85537 16.7844C4.07437 16.9144 4.37237 16.9984 4.66537 16.9984C5.04337 16.9984 5.23237 16.8414 5.23237 16.6284C5.23237 16.4484 5.11937 16.3014 4.74237 16.0374L4.47137 15.8544C3.58737 15.2794 3.25437 14.9364 3.25437 14.2314C3.25437 13.4904 3.80637 12.9984 4.59437 12.9984H4.59537ZM9.20137 12.9984C9.32632 12.9982 9.44682 13.0447 9.53916 13.1289C9.63149 13.2131 9.68896 13.3288 9.70025 13.4532C9.71154 13.5777 9.67583 13.7018 9.60015 13.8012C9.52448 13.9007 9.41432 13.9682 9.29137 13.9904L9.20137 13.9984H7.65437V14.9024H8.82937C8.95535 14.9007 9.07734 14.9466 9.17094 15.0309C9.26455 15.1152 9.32287 15.2318 9.33424 15.3572C9.34561 15.4827 9.3092 15.6078 9.23228 15.7076C9.15536 15.8074 9.04361 15.8745 8.91937 15.8954L8.82937 15.9034L7.65437 15.9024V16.9984H9.28937C9.4064 16.9984 9.51973 17.0394 9.60963 17.1143C9.69953 17.1892 9.76031 17.2933 9.78137 17.4084L9.78937 17.4984C9.78941 17.6154 9.7484 17.7288 9.67348 17.8187C9.59857 17.9086 9.49449 17.9693 9.37937 17.9904L9.28937 17.9984H7.15537C7.03835 17.9985 6.92502 17.9574 6.83511 17.8825C6.74521 17.8076 6.68444 17.7035 6.66337 17.5884L6.65537 17.4984V13.4984C6.65533 13.3814 6.69634 13.2681 6.77126 13.1782C6.84618 13.0883 6.95026 13.0275 7.06537 13.0064L7.15537 12.9984H9.20137ZM15.0394 14.9904L14.8094 15.5984H15.2414L15.0394 14.9904ZM11.8414 13.9984H11.2094V15.0934H11.8414C12.2624 15.0934 12.3444 15.0134 12.3444 14.5534C12.3444 14.1304 12.2644 14.0164 11.9374 14.0004L11.8414 13.9984ZM13.9854 1.99841C15.0794 1.99841 15.9854 2.90441 15.9854 3.99841V8.97841C15.9854 10.0724 15.0794 10.9784 13.9854 10.9784H5.99937C4.90537 10.9784 3.99937 10.0724 3.99937 8.97841V3.99841C3.99937 2.90441 4.90537 1.99841 5.99937 1.99841H13.9854ZM10.9994 6.99841H5.99937V8.99841H10.9994V6.99841Z" fill="#1A1C1F"/>
</g>
<defs>
<clipPath id="clip0_2202_1459">
<rect width="20" height="20" fill="white"/>
</clipPath>
</defs>
</svg>

<svg xmlns="http://www.w3.org/2000/svg" width="20" height="20" fill="none"><g clip-path="url(#a)"><path fill="#1A1C1F" fill-rule="evenodd" d="m15.51 13.257.036.084 1.328 4a.5.5 0 0 1-.914.397l-.035-.083-.352-1.057H14.43l-.407 1.077a.5.5 0 0 1-.558.315l-.087-.024a.5.5 0 0 1-.314-.558l.024-.087 1.517-4a.5.5 0 0 1 .906-.064m-3.67-.259c.962 0 1.504.542 1.504 1.555 0 .958-.475 1.48-1.345 1.535l-.158.005h-.632l.001 1.405a.5.5 0 0 1-.41.492l-.09.008a.5.5 0 0 1-.492-.41l-.008-.09v-4a.5.5 0 0 1 .41-.492l.09-.008zm-7.245 0c.437 0 .858.1 1.207.267a.5.5 0 0 1-.435.9 1.8 1.8 0 0 0-.772-.167c-.26 0-.34.071-.34.233 0 .188.115.34.498.608l.276.186c.874.568 1.203.907 1.203 1.602 0 .812-.673 1.371-1.567 1.371a2.64 2.64 0 0 1-1.322-.355.5.5 0 1 1 .512-.859c.22.13.517.214.81.214.378 0 .567-.157.567-.37 0-.18-.113-.327-.49-.59l-.27-.184c-.885-.575-1.218-.918-1.218-1.623 0-.74.552-1.233 1.34-1.233zm4.606 0a.5.5 0 0 1 .09.992l-.09.008H7.654v.904H8.83a.5.5 0 0 1 .09.993l-.09.008H7.654v1.095H9.29a.5.5 0 0 1 .492.41l.008.09a.5.5 0 0 1-.41.492l-.09.008H7.155a.5.5 0 0 1-.492-.41l-.008-.09v-4a.5.5 0 0 1 .41-.492l.09-.008zm5.838 1.992-.23.608h.432zm-3.198-.992h-.632v1.095h.632c.421 0 .503-.08.503-.54 0-.423-.08-.537-.407-.553zm2.144-12c1.094 0 2 .906 2 2v4.98c0 1.094-.906 2-2 2H6c-1.094 0-2-.906-2-2v-4.98c0-1.094.906-2 2-2zm-2.986 5H6v2h5z" clip-rule="evenodd"/></g><defs><clipPath id="a"><path fill="#fff" d="M0 0h20v20H0z"/></clipPath></defs></svg>
